img/LabelSync.svg

<?xml version="1.0" encoding="UTF-8" standalone="no"?>
<svg width="50px" height="50px" viewBox="0 0 50 50" version="1.1" xmlns="http://www.w3.org/2000/svg" xmlns:xlink="http://www.w3.org/1999/xlink" xmlns:sketch="http://www.bohemiancoding.com/sketch/ns">
    <!-- Generator: Sketch 3.0.4 (8053) - http://www.bohemiancoding.com/sketch -->
    <title>LabelSync</title>
    <desc>Created with Sketch.</desc>
    <defs>
        <linearGradient x1="50%" y1="0%" x2="50%" y2="100%" id="linearGradient-1">
            <stop stop-color="#969696" offset="0%"></stop>
            <stop stop-color="#4A4A4A" offset="100%"></stop>
        </linearGradient>
    </defs>
    <g id="Page-1" stroke="none" stroke-width="1" fill="none" fill-rule="evenodd" sketch:type="MSPage">
        <g id="LabelSync" sketch:type="MSArtboardGroup">
            <path d="M49.8150403,21.9951552 L46.5769065,7.9682393 C46.0563732,5.69371684 44.279897,3.91724067 42.002876,3.39337592 L27.9759601,0.156907845 C25.9271408,-0.316985704 23.7767135,0.298492913 22.2892375,1.78763468 L1.78771969,22.2883196 C-0.595906563,24.671113 -0.595906563,28.5363853 1.78771969,30.9208444 L19.0519365,48.1850613 C21.4355628,50.5670218 25.3000023,50.5670218 27.6836285,48.1850613 L48.1851463,27.6835435 C49.6734552,26.1952346 50.288101,24.0448073 49.8150403,21.9951552 L49.8150403,21.9951552 Z" id="Shape" fill="url(#linearGradient-1)" sketch:type="MSShapeGroup"></path>
            <path d="M34.1049278,34.5670764 C31.8204111,36.170319 29.1552804,37.0040052 26.4251871,37.0040052 C25.9779449,37.0040052 25.5315355,36.9765211 25.0826276,36.9307141 C24.9926794,36.919887 24.9043969,36.9057285 24.8144488,36.8949014 C24.5645928,36.863253 24.3155696,36.840766 24.0665465,36.7957919 C23.9932554,36.7832991 23.9224629,36.7624778 23.8491718,36.7458207 C23.6709411,36.7116737 23.4960419,36.6675325 23.3203099,36.6275555 C23.0562954,36.5650915 22.7939466,36.5017947 22.5365949,36.4243393 C22.3958427,36.3818638 22.2584219,36.3343911 22.1201682,36.2852528 C21.826171,36.1894747 21.5371709,36.0862008 21.2515022,35.9687685 C21.1682169,35.9304573 21.0890958,35.8929789 21.0058105,35.8571662 C20.6726691,35.7122497 20.3461906,35.557339 20.0272078,35.3849383 C19.9972251,35.369947 19.9689081,35.3516242 19.9380925,35.3341343 C18.833729,34.7294828 17.8193136,33.9715862 16.9206648,33.0712718 C16.8940135,33.0487847 16.8706936,33.0196349 16.8465409,32.9938164 C16.579195,32.7206405 16.3201776,32.4416346 16.073653,32.1451389 C16.0086904,32.0651849 15.9512236,31.9835653 15.8887596,31.9061099 C15.7221889,31.6962309 15.5497882,31.4905161 15.3957104,31.2673114 C15.3757219,31.2406601 15.3632291,31.2065131 15.3440735,31.1756976 C13.847436,29.0111117 12.9662772,26.3892894 12.9662772,23.5634181 L10.2786595,23.5634181 L14.5778484,17.1146347 L18.8770373,23.5634181 L16.1902525,23.5634181 C16.1902525,25.9678656 17.0322672,28.1774256 18.4289622,29.923919 C18.4697721,29.9747231 18.5072505,30.0313571 18.549726,30.0804954 C18.7429479,30.3128615 18.9461642,30.5360662 19.1593746,30.7492767 C19.1702017,30.7626023 19.1810288,30.7725966 19.1926887,30.7850894 C19.8789599,31.4696948 20.6601763,32.0551907 21.5155167,32.5257528 C21.5263438,32.5324157 21.5380037,32.5390785 21.5488308,32.5440756 C21.8020183,32.6806636 22.0610356,32.803093 22.3267159,32.9180268 C22.3775199,32.9405138 22.4266583,32.9638337 22.479128,32.9871536 C22.7048313,33.081266 22.9363645,33.1612199 23.1703963,33.2395081 C23.2661744,33.2703237 23.3611197,33.3061364 23.4593964,33.3352863 C23.6609469,33.3960846 23.8683274,33.4443901 24.074875,33.4926956 C24.2039673,33.524344 24.3313938,33.5551596 24.4604861,33.5801452 C24.6736966,33.6226207 24.8894056,33.6517705 25.1059474,33.6792547 C25.2192155,33.6942461 25.3316507,33.7125688 25.4449188,33.7233959 C25.7197604,33.7483815 25.9995991,33.7608743 26.2802707,33.7650386 C28.4040467,33.7941885 30.4820157,33.1687156 32.2593248,31.9269313 C32.9864057,31.4147265 33.9916597,31.5912914 34.5038645,32.3217038 C35.0135708,33.0512833 34.8353401,34.0548716 34.1049278,34.5670764 L34.1049278,34.5670764 Z" id="Path" fill="#FFFFFF" sketch:type="MSShapeGroup"></path>
            <path d="M38.2225547,30.0138672 L33.9225329,23.5650838 L36.6109835,23.5650838 C36.6101506,21.1123307 35.738986,18.8611281 34.2914869,17.0996433 C34.2856569,17.0921476 34.2789941,17.0821534 34.2731641,17.0746577 C33.2445903,15.829542 31.9253506,14.8359479 30.4245489,14.1888209 C30.3995633,14.1763281 30.3737448,14.165501 30.3479264,14.1546739 C30.0972375,14.0505672 29.8423844,13.9589534 29.5825341,13.8740023 C29.5117416,13.8506824 29.4401162,13.824864 29.3684908,13.8023769 C29.1411219,13.7332501 28.9087558,13.6766161 28.6755569,13.6241463 C28.5731159,13.6008264 28.4698421,13.575008 28.3649026,13.5533538 C28.1283722,13.5075469 27.8876776,13.472567 27.6453173,13.44425 C27.5553691,13.4317572 27.4645881,13.4184315 27.3746399,13.4092702 C27.0798099,13.381786 26.7799827,13.3667946 26.4776569,13.3642961 C24.3680394,13.3451405 22.3092259,13.9706133 20.5477411,15.204902 C19.8173288,15.7162739 18.8112419,15.5388761 18.3015357,14.8092966 C17.7909966,14.0797171 17.9683943,13.0744631 18.6988067,12.563924 C20.9816577,10.9648456 23.6401256,10.1411537 26.3677203,10.139488 C26.3802131,10.1386551 26.3910402,10.1353237 26.4027001,10.1353237 C26.4676627,10.1353237 26.528461,10.1444851 26.5950892,10.1436522 C26.9490519,10.150315 27.3038474,10.1644736 27.6603086,10.1977877 C27.8093894,10.2119462 27.9526402,10.2352661 28.1000552,10.2535889 C28.3132657,10.2802402 28.5256433,10.2968972 28.7380209,10.3343756 C28.8163091,10.3485341 28.8912659,10.3710212 28.9678884,10.3868454 C29.1269634,10.4184938 29.2852055,10.4576379 29.4409491,10.4942835 C29.7257849,10.5609117 30.0072893,10.6292057 30.2862952,10.7124911 C30.4020618,10.7474709 30.5153299,10.7882807 30.6302636,10.8274248 C30.9492465,10.9323643 31.2665636,11.0456324 31.5772179,11.1747247 C31.6296876,11.1972117 31.6821574,11.2221973 31.73546,11.2455172 C33.6760083,12.0817019 35.3866891,13.359299 36.75007,15.0141785 C36.7742227,15.0433284 36.7967098,15.074144 36.8208625,15.1041267 C37.0207473,15.3514841 37.2231307,15.5971759 37.408857,15.8620232 C37.4330097,15.8961702 37.4488339,15.9336486 37.4688224,15.9702942 C38.9596299,18.1315486 39.8349587,20.7458752 39.8357916,23.5642509 L42.5217436,23.5642509 L38.2225547,30.0138672 L38.2225547,30.0138672 Z" id="Path" fill="#FFFFFF" sketch:type="MSShapeGroup"></path>
        </g>
    </g>
</svg>

<svg viewBox="0 0 50 50" xmlns="http://www.w3.org/2000/svg"><defs><linearGradient y1="0%" x2="0" y2="100%" id="0"><stop stop-color="#969696" offset="0%"/><stop stop-color="#4a4a4a" offset="100%"/></linearGradient></defs><g fill="none" fill-rule="evenodd"><path d="m49.815 21.995l-3.238-14.03c-.521-2.275-2.297-4.051-4.574-4.575l-14.03-3.236c-2.049-.474-4.199.142-5.687 1.631l-20.502 20.501c-2.384 2.383-2.384 6.248 0 8.633l17.264 17.264c2.384 2.382 6.248 2.382 8.632 0l20.502-20.502c1.488-1.488 2.103-3.639 1.63-5.688" fill="url(#0)"/><g fill="#fff"><path d="m34.1 34.567c-2.285 1.603-4.95 2.437-7.68 2.437-.447 0-.894-.027-1.343-.073-.09-.011-.178-.025-.268-.036-.25-.032-.499-.054-.748-.099-.073-.012-.144-.033-.217-.05-.178-.034-.353-.078-.529-.118-.264-.062-.526-.126-.784-.203-.141-.042-.278-.09-.416-.139-.294-.096-.583-.199-.869-.316-.083-.038-.162-.076-.246-.112-.333-.145-.66-.3-.979-.472-.03-.015-.058-.033-.089-.051-1.104-.605-2.119-1.363-3.02-2.263-.027-.022-.05-.052-.074-.077-.267-.273-.526-.552-.773-.849-.065-.08-.122-.162-.185-.239-.167-.21-.339-.416-.493-.639-.02-.027-.032-.061-.052-.092-1.497-2.165-2.378-4.786-2.378-7.612h-2.688l4.299-6.449 4.299 6.449h-2.687c0 2.404.842 4.614 2.239 6.361.041.051.078.107.121.157.193.232.396.456.61.669.011.013.022.023.033.036.686.685 1.467 1.27 2.323 1.741.011.007.022.013.033.018.253.137.512.259.778.374.051.022.1.046.152.069.226.094.457.174.691.252.096.031.191.067.289.096.202.061.409.109.615.157.129.032.257.062.386.087.213.042.429.072.645.099.113.015.226.033.339.044.275.025.555.037.835.042 2.124.029 4.202-.596 5.979-1.838.727-.512 1.732-.336 2.245.395.51.73.331 1.733-.399 2.245"/><path d="m38.22 30.01l-4.3-6.449h2.688c-.001-2.453-.872-4.704-2.319-6.465-.006-.007-.012-.017-.018-.025-1.029-1.245-2.348-2.239-3.849-2.886-.025-.012-.051-.023-.077-.034-.251-.104-.506-.196-.765-.281-.071-.023-.142-.049-.214-.072-.227-.069-.46-.126-.693-.178-.102-.023-.206-.049-.311-.071-.237-.046-.477-.081-.72-.109-.09-.012-.181-.026-.271-.035-.295-.027-.595-.042-.897-.045-2.11-.019-4.168.606-5.93 1.841-.73.511-1.736.334-2.246-.396-.511-.73-.333-1.735.397-2.245 2.283-1.599 4.941-2.423 7.669-2.424.012-.001.023-.004.035-.004.065 0 .126.009.192.008.354.007.709.021 1.065.054.149.014.292.037.44.056.213.027.426.043.638.081.078.014.153.037.23.052.159.032.317.071.473.107.285.067.566.135.845.218.116.035.229.076.344.115.319.105.636.218.947.347.052.022.105.047.158.071 1.941.836 3.651 2.114 5.01 3.769.024.029.047.06.071.09.2.247.402.493.588.758.024.034.04.072.06.108 1.491 2.161 2.366 4.776 2.367 7.594h2.686l-4.299 6.45"/></g></g></svg>
